static/img/svg/bxs-calculator.svg

<svg xmlns="http://www.w3.org/2000/svg" width="24" height="24" viewBox="0 0 24 24"><path d="M20,3H4C3.447,3,3,3.448,3,4v16c0,0.553,0.447,1,1,1h16c0.553,0,1-0.447,1-1V4C21,3.448,20.553,3,20,3z M17,11v6h-2v-6H17z M11,13v-2h2v2H11z M13,15v2h-2v-2H13z M7,13v-2h2v2H7z M9,15v2H7v-2H9z M19,5v2H5V5H19z"/></svg>

<svg xmlns="http://www.w3.org/2000/svg" width="24" height="24" viewBox="0 0 24 24"><path d="M4,21h16c0.553,0,1-0.447,1-1V4c0-0.552-0.447-1-1-1H4C3.447,3,3,3.448,3,4v16C3,20.553,3.447,21,4,21z M13,17h-2v-2h2V17z M13,13h-2v-2h2V13z M17,17h-2v-6h2V17z M7,7h10v2H7V7z M7,11h2v2H7V11z M7,15h2v2H7V15z"/></svg>
